!!!!SEGMENT: pl-wtm--r-2550--002_hertz-michal--szklana-gora-zbrojny-krakowiak.krn
!!!cenid: 18xx:3121
!!!COM: Hertz, Michał
!!!COM-rismID: pe41023359
!!!CDT: 1844/09/28-~1918
!!!CNT: Polish
!!!GTL: Szklana góra
!!!OTL: Zbrojny krakowiak
!!!PDT:
!!!AGN:
!!!SMS-siglum: PL-Wtm
!!!SMS-shelfmark: R 2550
!!!SMS-shelfwork: 002 G
!!!SMS-variant:
!!!SMS-altvar:
!!!NIFC-rismSourceID: 1001083932
!!!NIFC-rismChildID: 1001083932
!!!NIFC-islandoraID:
!!!URL-pdf-islandora:
!!!URL-scan:
!!!ONB-nifc: UWAGA: w zbiorze: 1. Andante religioso, 2. Zbrojny krakowiak
!!!AIN: 1 piano
!!!key:
**kern	**kern	**dynam
*part1	*part1	*part1
*staff2	*staff1	*
*Ipiano	*Ipiano	*
*I"Pianoforte	*I"Pianoforte	*
*clefF4	*clefG2	*
*k[f#c#]	*k[f#c#]	*
*b:	*b:	*
*M2/4	*M2/4	*
*>[A,B,B,C,A]	*>[A,B,B,C,A]	*
=1	=1	=1
!!!OMD: allegro.
*>A	*>A	*
*	*^	*
!	!	!	!LO:DY:rj
8AA 8EE 8AAA/	8aa 8cc# 8a\	4.ryy	f
4C# 4CC#/	4ee 4a 4g\	.	.
8AA 8AAA/	(<16ff#/LL	8a 8c#\	.
.	16gg/JJ)	.	.
=2	=2	=2	=2
*^	*	*^	*
*	*	*2\right	*	*	*
8rc	8D 8DD\	(<16ff#/LL	2a\	8d\	.
.	.	16ee/JJ)	.	.	.
8d 8A 8F#/	8rEE	4dd/	.	4.ryy	.
4f# 4d 4A/	4rEE	.	.	.	.
.	.	(<16ee/LL	.	.	.
.	.	16dd/JJ)	.	.	.
*	*	*v	*v	*v	*
=3	=3	=3	=3
8rc	8G 8GG\	(>16cc#\LL	.
.	.	16b\JJ)	.
8d 8B 8G/	8rEE	4ee\	.
4g 4d 4B/	4rEE	.	.
.	.	(>16dd\LL	.
.	.	16b\JJ)	.
=4	=4	=4	=4
8rc	8F# 8FF#\	8dd\	.
8d 8A 8F#/	8rEE	4a/	.
4f# 4d 4A/	4rEE	.	.
.	.	(<16f#/LL	.
.	.	16g/JJ)	.
=5	=5	=5	=5
8rc	8E 8EE\	(>8.a\L	.
8g 8c# 8A/	8rEE	.	.
.	.	16b\Jk	.
8rc	8AA 8AAA\	16cc#\LL	.
.	.	16dd\	.
8g 8c# 8A/	8rEE	16ee\	.
.	.	16ee#X\JJ)	.
=6	=6	=6	=6
8rc	8D 8DD\	(16ff#\LL	.
.	.	16bb\JJ)	.
8f# 8d 8A/	8r	4aa\	.
4f# 4d 4B/	4BB 4BBB\	.	.
.	.	(>16gg#X\LL	.
.	.	16ff#\JJ)	.
!!LO:LB:g=original
=7	=7	=7	=7
8rc	8E 8EE\	8ee\L	.
8e 8d 8G#X/	8rEE	8ddd 8dd\	.
4e 4d 4G#/	8EE 8EEE\	(>8.ccc# 8.cc#\	.
.	8rEE	.	.
.	.	16bbJk 16b\)	.
=8	=8	=8	=8
16rc	(>4AA (<4AAA\	8bbL 8b\	.
16c#LL 16A'</	.	.	.
16d 16B'</	.	[>8aaJ [<8a^>\	.
16d#XJJ 16B#X'</	.	.	.
8e 8c#/	8A) 8AA\)	16aa]LL 16a\]	.
.	.	(>16gg#X 16g#X\	.
8rc	8rEE	16ggn 16gn\	.
.	.	16ff#JJ 16f#\)	.
=9	=9	=9	=9
*	*	*^	*
.	.	.	8qee 8qe/	.
8rc	8AA 8AAA\	8r	2a\	.
8c# 8A 8E/	8rEE	8aa/L	.	.
4g 4c# 4A/	4rEE	(<8.ee/	.	.
.	.	16gg/Jk)	.	.
*	*	*v	*v	*
=10	=10	=10	=10
8rc	8D 8DD\	(>16ff#LL 16dd\	.
.	.	16eeJJ 16a\)	.
8d 8A 8F#/	8rEE	4dd 4a\	.
4f# 4d 4A/	4rEE	.	.
.	.	(>16eeLL 16cc#\	.
.	.	16ddJJ 16b\)	.
=11	=11	=11	=11
8rA	8GG 8GGG\	(>16cc#LL 16a\	.
.	.	16bJJ 16g\)	.
8d 8B 8G/	8rEE	4ee 4cc#\	.
4g 4d 4B/	4rEE	.	.
.	.	(>16ddLL 16b\	.
.	.	16bJJ 16g\)	.
=12	=12	=12	=12
8rc	8D 8DD\	8dd 8f#\	.
8d 8A 8F#/	8rEE	4a 4f#/	.
4f# 4d 4A/	4rEE	.	.
.	.	(<16f#LL 16d/	.
.	.	16gJJ 16e/)	.
!!LO:LB:g=original
=13	=13	=13	=13
8rc	8E 8EE\	(>8.aL 8.f#\	.
8g 8e 8A/	8rEE	.	.
.	.	16bJk 16g\	.
8rA	8AA 8AAA\	16cc#LL 16a\	.
.	.	16dd 16b\	.
8g 8c# 8A/	8rEE	16ee 16cc#\	.
.	.	16ee#XJJ 16a\)	.
=14	=14	=14	=14
8rc	8D 8DD\	(>16ff#LL 16dd\	.
.	.	16bbJ 16dd\)	.
8f# 8d 8A/	8rEE	8aaJ 8ff#'>\	.
4f# 4d 4B/	4BB 4BBB\	8dddL 8ff#\	.
.	.	16r	.
.	.	16ff#Jk 16dd\	.
=15	=15	=15	=15
*	*	*^	*
8rA	8GG 8GGG\	(<16dd#X/LL	4b\	.
.	.	16ff#/J)	.	.
8g 8e 8B/	8rEE	8ee/J	.	.
4g 4c# 4A/	4AA 4AAA\	8bbL 8cc# 8b\	4ryy	.
.	.	16r	.	.
.	.	16cc#Jk 16a 16g\	.	.
*	*	*v	*v	*
=16	=16	=16	=16
8rc	[>4D [<4DD\	8ee 8a 8g'>\	.
4d 4A/	.	4dd 4a 4f#^>\	.
.	8D] 8DD\]	.	.
8rc	8rGG	(>16cc#\LL	.
.	.	16b\JJ)	.
=17	=17	=17	=17
!	!	!	!LO:DY:rj
8rc	4G\	(>16a\LL	p
.	.	16b\J)	.
8e 8c# 8A/	.	[>8a\J	.
8rc	4F#\	16a\LL]	.
.	.	(>16cc#\	.
8f# 8d 8A/	.	16dd\	.
.	.	16b\JJ)	.
=18	=18	=18	=18
8.gL 8.c# 8.A 8.E\	4ryy	(>16a\LL	.
.	.	16cc#\	.
.	.	16.ee\)	.
16gJk 16c# 16A 16AA\	.	.	.
.	.	32ggJJk 32ee 32a 32g\	.
8d 8A/	8A 8D\	(>16ggLL 16ee 16a 16g\	.
.	.	16ff# 16dd 16a 16f#\)	.
8rc	8rGG	(>16a\	.
.	.	16g\JJ)	.
!!LO:LB:g=original
=19	=19	=19	=19
8rc	4E\	(<16f#/LL	.
.	.	16g/J)	.
8c# 8A#X 8F#/	.	[<8f#/J	.
8rc	4D\	16f#/LL]	.
.	.	(<16a#X/	.
8d 8A# 8F#/	.	16b/	.
.	.	16g/JJ)	.
=20	=20	=20	=20
4ryy	8.eL 8.A#X 8.F# 8.C#\	(>16f#\LL	.
.	.	16a#X\	.
.	.	16.cc#\)	.
.	16eJk 16A# 16F# 16FF#\	.	.
.	.	32eeJJk 32cc# 32f# 32e\	.
8B 8F#/	8F# 8BB\	(>16eeLL 16cc# 16f# 16e\	.
.	.	16dd 16b 16f# 16d\)	.
8rc	8rGG	16r	.
.	.	16ddJJ 16d\	.
*v	*v	*	*
=21	=21	=21
8.F#L 8.BB\	(>16eeLL 16e\	.
!	!LO:TX:a:i:t=cre-scen-do:problem=dynamics with line extensions	!LO:HP:a:i:t=cre-scen-do:ext=cd
.	16dd 16d\)	<
.	(>16dd 16d\	.
16F#Jk 16AA\	16cc#JJ 16c#\)	.
(>16ELL 16GG#X\	(>16cc#LL 16c#\	.
16C# 16CC#\	16bJ 16B\)	.
16r	[>8ddJ [<8d\	.
16C#JJ 16CC#\)	.	.
=22	=22	=22
8.F#L 8.AA\	(>16dd]LL 16d\]	.
.	16cc# 16c#\)	.
.	(>16cc# 16c#\	.
16E#XJk 16GG#X\	16bJJ 16B\)	.
16F#LL 16C# 16FF#\	(>16bLL 16B\	.
16C# 16CC#\	16aJ 16A\)	.
16rD	8cc#J 8c#\	.
16C#JJ 16CC#\	.	.
=23	=23	=23
8.GL 8.C# 8.CC#\	(>16bLL 16B\	.
.	16aJ 16A\)	.
.	[>8aaJ [<8a^\	.
16c#Jk 16A 16E\	.	.
8g 8c# 8A\	16aa]LL 16a\]	.
.	(>16gg#X 16g#X\	.
8r	16ggn 16gn\	.
.	16ff#JJ 16f#\)	.
=24	=24	=24
2r	(>16dd#XLL 16d#X\	.
.	16ee 16e\	.
.	16ff# 16f#\	.
.	16eeJJ 16e\)	.
.	(>16aaLL 16a\	[
.	16a 16A\)	.
.	16r	.
.	16aJJ 16A\	.
=25	=25	=25
8.AA\L	(>16cc#\LL	.
.	16b\)	.
.	(>16b\	.
16BB\Jk	16a\JJ)	.
16BB#X\LL	[>4aa\	.
16C#\	.	.
16D\	.	.
!LO:TX:a:t=P:problem=# above	!	!
16D#X\JJ	.	.
=26	=26	=26
8.E\L	(>16aa\LL]	.
!	!LO:TX:a:t=P:problem=# above	!
.	16gg#X\)	.
!	!LO:TX:a:t=P:problem=♮ above	!
.	(>16ggn\	.
16F#\Jk	16ff#\JJ)	.
!	!LO:N:vis=16	!
4G\	8ee\L	.
!	!LO:N:vis=16	!
.	8a\J	.
!!LO:LB:g=original
=27	=27	=27
*^	*	*
8rA	8AA 8AAA\	8aaL 8a'\	ff
8c# 8A 8E/	8rEE	8aaa 8aa'\	.
4g 4c# 4A/	4rEE	(>8.eee 8.ee\	.
.	.	16gggJk 16gg\)	.
=28	=28	=28	=28
8rc	8D 8DD\	(>16fff#LL 16ff#\	.
.	.	16eeeJJ 16ee\)	.
8d 8A 8F#/	8rEE	4ddd 4dd'\	.
4f# 4d 4A/	4rEE	.	.
.	.	(>16eeeLL 16ee\	.
.	.	16dddJJ 16dd\)	.
=29	=29	=29	=29
8rA	8GG 8GGG\	(>16ccc#LL 16cc#\	.
.	.	16bbJJ 16b\)	.
8d 8B 8G/	8rEE	4eee 4ee\	.
4g 4d 4B/	4rEE	.	.
.	.	(>16dddLL 16dd\	.
.	.	16bbJJ 16b\)	.
=30	=30	=30	=30
8rc	8D 8DD\	8ddd 8dd\	.
8d 8A 8F#/	8rEE	4aa 4a\	.
4f# 4d 4A/	4rEE	.	.
.	.	(>16ff#LL 16f#\	.
.	.	16ggJJ 16g\)	.
=31	=31	=31	=31
8rA	8C# 8CC#\	(>8.aaL 8.a\	.
8g 8e 8A/	8rEE	.	.
.	.	16bbJk 16b\	.
8rA	8AA 8AAA\	16ccc#LL 16cc#\	.
.	.	16ddd 16dd\	.
8g 8c# 8A/	8rEE	16eee 16ee\	.
.	.	16gggJJ 16gg\)	.
=32	=32	=32	=32
8rc	8D 8DD\	(>16fff#LL 16ff#\	.
.	.	16bbbJJ 16bb\)	.
8f# 8d 8A/	8rEE	4aaa 4aa\	.
4f# 4d 4B^>/	4BB 4BBB^>\	.	.
.	.	(>16ggg#XLL 16gg#X\	.
.	.	16fff#JJ 16ff#\)	.
=33	=33	=33	=33
8rc	8E 8EE\	8eeeL|> 8ee\	.
*v	*v	*	*
*	*8va	*
*^	*	*
8e 8d 8G#X/	8rEE	8dddd\	.
4e 4d 4G#/	8EE 8EEE/	(>8.cccc#\	.
.	8rEE	.	.
.	.	16bbb\Jk)	.
!!LO:LB:g=original
=34	=34	=34	=34
16rc	(>4AA (<4AAA\	8bbb\L	.
16c#LL 16A'</	.	.	.
16d 16B'</	.	[>8aaa\J	.
16d#XJJ 16B#X'</	.	.	.
8e 8c#/	8A) 8AA\)	16aaa\LL]	.
.	.	(>16ggg#X\	.
8rc	8rEE	16gggn\	.
.	.	16fff#\JJ)	.
*v	*v	*	*
*	*X8va	*
=35	=35	=35
*^	*	*
.	.	8qeee 8qee/	.
8rc	8AA 8AAA\	8aaL 8a\	.
8c# 8A 8E\	8rEE	8aaa 8aa\	.
4g 4c# 4A\	4rEE	(>8.eee 8.ee\	.
.	.	16gggJk 16gg\)	.
=36	=36	=36	=36
8rc	8D 8DD\	(>16fff#LL 16ddd 16ff#\	.
.	.	16eeeJJ 16aa 16ee\)	.
8d 8A 8F#/	8rEE	4ddd 4ff# 4dd\	.
4f# 4d 4A/	4rEE	.	.
.	.	(>16eeeLL 16ccc# 16ee\	.
.	.	16dddJJ 16bb 16dd\)	.
=37	=37	=37	=37
8rc	8GG 8GGG\	(>16ccc#LL 16aa 16cc#\	.
.	.	16bbJJ 16gg 16b\)	.
8d 8B 8G/	8rEE	4eee 4ccc# 4ee\	.
4g 4d 4B/	4rEE	.	.
.	.	(>16dddLL 16bb 16dd\	.
.	.	16bbJJ 16gg 16b\)	.
=38	=38	=38	=38
8rc	8D 8DD\	8ddd 8ff# 8dd\	.
8d 8A 8F#/	8rEE	4aa 4ff# 4a\	.
4f# 4d 4A/	4rEE	.	.
.	.	(>16ff#LL 16dd 16f#\	.
.	.	16ggJJ 16ee 16g\)	.
=39	=39	=39	=39
8rc	8C# 8CC#\	(>8.aaL 8.gg 8.a\	.
8g 8e 8A/	8rEE	.	.
.	.	16bbJk 16gg 16b\	.
8rc	8AA 8AAA\	16ccc#LL 16aa 16a\	.
.	.	16ddd 16bb 16dd\	.
8g 8c# 8A/	8rEE	16eee 16ccc# 16ee\	.
.	.	16eeeJJ 16gg\)	.
*v	*v	*	*
=40	=40	=40
*	*8va	*
*^	*	*
8rc	8D 8DD\	(>16fff#LL 16ddd\	.
.	.	16bbbJ 16ddd\)	.
8f# 8d 8A/	8rEE	8aaaJ 8fff#\	.
4f# 4d 4B^>/	4BB 4BBB\	8.ddddL 8.fff#\	.
.	.	16fff#Jk 16ddd\	.
*v	*v	*	*
*	*X8va	*
!!LO:LB:g=original
=41	=41	=41
!!!OMD: allegro
!	!LO:TX:a:i:t=Entrée	!LO:DY:rj
8C# 8CC#\	8g 8e 8A/	f
16e\LL	16ee\LL	.
16f#\JJ	16ff#\JJ	.
16g\LL	16gg\LL	.
16f#\	16ff#\	.
16e\	16ee\	.
16d\JJ	16dd\JJ	.
=42	=42	=42
16c#\LL	16cc#\LL	.
16d\	16dd\	.
16e\	16ee\	.
16d\JJ	16dd\JJ	.
16c#\LL	16cc#\LL	.
16B\	16b\	.
16A\	16a\	.
16G#X\JJ	16g#X\JJ	.
=43	=43	=43
8A\L	8a/L	.
16A\L	16a/L	.
16E\JJ	16e/JJ	.
8A\L	8a/L	.
16A\L	16a/L	.
16E\JJ	16e/JJ	.
=44	=44	=44
8A\	8a/	.
8r	8r	.
4r;>	4r;>	.
!!LO:PB:g=original
=45||	=45||	=45||
*	*8va	*
*^	*	*
*	*	*^	*
8rc	8GG 8GGG\	(<16ddd#X/LL	4bb\	.
.	.	16fff#/J	.	.
8g 8e 8A/	8rEE	8eee/J)	.	.
4g 4c# 4A/	4AA 4AAA\	(>8.bbbL 8.ccc# 8.bb\	4ryy	.
.	.	16ccc#Jk 16gg\)	.	.
*	*	*v	*v	*
=46	=46	=46	=46
8c# 8A/	8D 8DD\	8eee 8gg\	.
*v	*v	*	*
*^	*	*
4d 4A/	4D 4DD\	4ddd 4ff#>^\	.
*	*	*X8va	*
!	!	!LO:TX:b:i:t=Fine	!
8r	8ryy	8r	.
=47!|:	=47!|:	=47!|:	=47!|:
*>B	*>B	*>B	*
!	!	!LO:TX:a:i:t=Trio.	!LO:DY:rj
8BB 8BBB\	8ryy	(>16ddLL 16b\	p
.	.	16eeJ 16cc#\)	.
8f# 8d 8B 8F#\	8rCC	8ff#'>J 8dd\	.
!LO:TX:a:i:t=1	!	!	!
4g 4e 4A#X 4F#\	4rCC	8.ggL 8.ee^<\	.
.	.	16eeJk 16cc#\	.
=48	=48	=48	=48
*rep	*rep	*	*
8BB 8BBB\	8ryy	(>16ff#LL 16dd\	.
.	.	16eeJ 16cc#\)	.
!LO:TX:a:i:t=2	!	!	!
8f# 8d 8B 8F#\	8rCC	8ddJ 8b'>\	.
4g 4e 4A#X 4F#\	4rCC	8.ggL 8.ee^>\	.
.	.	16eeJk 16cc#\	.
*Xrep	*Xrep	*	*
=49	=49	=49	=49
8rc	8BB\	8ff#L 8dd'>\	.
8g 8e 8A#X 8F#/	8rEE	8cc# 8a#X^>\	.
8rc	4rEE	8ff# 8dd'>\	.
8g 8e 8A# 8F#/	.	8cc#J 8a#^>\	.
=50	=50	=50	=50
8r	8BB\	8eeL 8cc#\	.
8g 8e 8A#X 8F#/	4.ryy	(>16ddL 16b\	.
.	.	16cc#JJ 16a#X\)	.
4d 4B 4F#\	.	(>16bLL 16d\	.
.	.	16cc# 16f#\	.
.	.	16dd 16b\	.
.	.	16eeJJ 16cc#\)	.
!!LO:LB:g=original
=51	=51	=51	=51
!	!	!	!LO:DY:rj
8BByy 8BBB\yy	8ryy	(y>16ddLLyy 16b\yy	p
.	.	16eeJyy 16cc#\)yy	.
8f#yy 8dyy 8Byy 8F#\yy	8rCCyy	8ff#'>J 8dd\yy	.
!LO:TX:a:t=1	!	!	!
4gyy 4eyy 4A#Xyy 4F#\yy	4rCCyy	8.ggL 8.ee^>\yy	.
.	.	16eeJkyy 16cc#\yy	.
=52	=52	=52	=52
8BByy 8BBB\yy	8ryy	(y>16ff#LL 16dd\yy	.
.	.	16eeJ 16cc#\)yy	.
!LO:TX:a:t=2	!	!	!
8f#yy 8dyy 8Byy 8F#\yy	8rCCyy	8ddJ 8b'>\yy	.
4gyy 4eyy 4A#Xyy 4F#\yy	4rCCyy	8.ggL 8.ee^>\yy	.
.	.	16eeJkyy 16cc#\yy	.
=53	=53	=53	=53
8rc	8BB\	8ff#L 8dd'\	.
8g 8e 8A#X 8F#/	4.ryy	8cc#J 8a#X'\	.
4g 4e 4A# 4F#/	.	4ff# 4dd^>\	.
=54	=54	=54	=54
8r	8BB\	(>16ff#LL 16dd\	.
.	.	16ee 16cc#\	.
8g 8e 8A#X 8F#\	4.ryy	16dd 16b'>\	.
.	.	16cc#JJ 16a#X'>\)	.
4f# 4d 4B\	.	4b 4d\	.
=55:|!	=55:|!	=55:|!	=55:|!
*>C	*>C	*>C	*
8e#X 8c# 8B/	8rGG	8cc#\L	.
8CC#\L	4ryy	(>16g#X\L	.
.	.	16a\JJ)	.
8C#\J	.	8b\L	.
8e# 8c# 8B/	8rGG	(>16a\L	.
.	.	16g#\JJ)	.
=56	=56	=56	=56
8f# 8e 8A/	8rGG	(>16f#\LL	<
.	.	16g#X\	.
4ryy	8CC#\L	16a\	.
.	.	16b\JJ	.
.	8C#\J	16b#X\LL	.
.	.	16cc#\	.
8f# 8c# 8A/	8rGG	16ff#\)	.
.	.	32r	.
.	.	32dd\JJk	[[
=57	=57	=57	=57
!	!	!	!LO:HP:a
8e#X 8B 8G#X/	8rCC	8cc#\L	>
4ryy	8CC#\L	(>16g#X\L	.
.	.	16a\JJ)	.
.	8C#\J	(>16cc#\LL	.
.	.	16b\	.
8e# 8B 8G#/	8rGG	16a\	]
.	.	16g#\JJ)	.
*v	*v	*	*
!!LO:LB:g=original
=58	=58	=58
8f#L 8c# 8A\	(>16b\LL	.
.	16a\)	.
8C#J 8CC#\	16g#X'>\	.
.	16a'>\JJ	.
8qFF#/	.	.
4c# 4A 4F#/	8f#/L	.
.	(<16g#/L	.
.	16a/JJ)	.
=59	=59	=59
8d#X 8B 8A\	8b\L	.
4BB/	(>16f#\L	p
.	16g#X\JJ)	.
.	8a\L	.
8d# 8B 8A/	(>16g#\L	.
.	16f#\JJ)	.
=60	=60	=60
8e 8B 8G#X\	(<16e/LL	.
.	16f#/	<
4BB/	16g#X/	.
.	16a/JJ	.
.	16a#X/LL	.
.	16b/	.
8e 8B 8G#/	16ee/)	.
.	32r	.
.	32cc#/JJk	[[
=61	=61	=61
8d#X 8A 8F#/	8b\L	.
4BB/	(>16f#\L	.
.	16g#X\JJ)	.
.	(16b\LL	.
.	16a\	.
8d# 8A 8F#/	16g#\	.
.	16f#\JJ)	.
=62	=62	=62
8eL 8B 8G#X\	(<16a/LL	.
.	16g#X/	.
8BB\J	16f#/	.
.	16g#/JJ)	.
4B 4G# 4E\	8e/L	.
.	(<16f#/L	.
.	16g#/JJ)	.
=63	=63	=63
8D#X\	(>16f##X\LL	p
.	16g#X\	.
4f## 4d#X 4c#\	16a#X\	.
.	16b\JJ	.
.	16dd#X\LL	.
.	16cc#\	.
8f## 8d# 8c#\	16b\	.
.	16a#\JJ)	.
!!LO:LB:g=original
=64	=64	=64
*^	*	*
8rc	4D#	(>16cc#\LL	.
.	.	16b\)	.
8f##X 8d#X 8c#\	.	16a#X'>\	.
.	.	16b'>\JJ	.
4d# 4B 4G/	4D#	8g#X\L	.
.	.	(>16a#\L	.
.	.	16b\JJ)	.
*v	*v	*	*
=65	=65	=65
8D#X\	(>16b#X\LL	.
!	!LO:TX:a:i:t=po-co a po-co:dur=2w7s:ext=cd:problem=text with line extensions	!
.	16cc#\	.
4g#X 4f# 4B#X\	16dd#X\	.
.	16ee\JJ	.
.	16gg#X\LL	.
.	16ff#\	.
8g# 8f# 8B#\	16ee\	.
.	16dd#\JJ)	.
=66	=66	=66
*^	*	*
8rc	8C#\	(>16ff#\LL	.
.	.	16ee\)	.
8g#X 8e 8c#/	8ryy	16dd#X'>\	.
.	.	16ee'>\JJ	.
4e 4c# 4G#X/	4C#\	8cc#\L	.
.	.	(>16dd#\L	.
.	.	16ee\JJ)	.
=67	=67	=67	=67
*	*2\right	*	*
8rc	[<2E\	(>16dd#X\LL	.
.	.	16cc#\)	.
8e 8c# 8G#X/	.	16r	.
.	.	16b#X\JJ	.
8rc	.	(>16dd#\LL	.
.	.	16cc#\)	.
8e 8c# 8G#/	.	16gg#X'\	.
.	.	16ee'\JJ	.
=68	=68	=68	=68
*rep	*	*	*
8ra	2E\]	(>16dd#X\LL	.
.	.	16cc#\)	.
8e 8c# 8G#X/	.	16b#X'\	.
.	.	16cc#'\JJ	.
8ra	.	(>8.ee\L	.
8e 8c# 8G#/	.	.	.
.	.	16cc#\Jk)	.
*Xrep	*	*	*
=69	=69	=69	=69
8rc	[<2E\	(>16ddn\LL	.
.	.	16ccn\)	.
8e 8cn 8Gn/	.	16r	.
.	.	16b\JJ	.
8rc	.	(>16dd\LL	.
.	.	16cc\)	.
8e 8c 8G/	.	16ggn'\	.
.	.	16ee'\JJ	.
!!LO:LB:g=original
=70	=70	=70	=70
8rc	2E\]	16dd\LL	.
.	.	16ccn\	.
8e 8cn 8G/	.	16b\	.
.	.	16cc\JJ	.
!	!	!LO:TX:a:i:t=cre-scen-do:problem=dynamics with line extensions	!LO:HP:a:i:t=cre-scen-do:ext=cd
8rc	.	(>8ee\L	<
8e 8c 8G/	.	16dd\L	.
.	.	16cc\JJ)	.
=71	=71	=71	=71
4.e 4.c#X/	(>8.F#\L	(>16b\LL	.
.	.	16a#X\J)	.
.	.	8a#\J	.
.	16G\Jk)	.	.
.	8F#\L	(>16gg\LL	.
.	.	16ff#\)	.
8f# 8d 8B 8F#/	8F#\J	16dd'>\	.
.	.	16b'>\JJ	.
*v	*v	*	*
=72	=72	=72
*	*^	*
2ryy	8.r	16b\LL	.
.	.	16a#X\J	.
.	.	[>8a#\J	.
.	16gg/	.	.
.	(>4ff#/	8.a#\L]	.
.	.	16b\Jk	.
=73	=73	=73	=73
*^	*	*	*
(<8.eL 8.c#/	2F#\	16a#X/LL	(>8.a#\L)	.
.	.	16ff#/JJ	.	.
.	.	[>8ff#/	.	.
16d/Jk)	.	.	16b\Jk)	.
(<8.eL 8.c#/	.	(<16ff#/LL]	(>8.a#\L	.
.	.	16gg/J)	.	.
.	.	8ff#/J	.	.
16d/Jk)	.	.	16b\Jk)	.
*v	*v	*	*	*
=74	=74	=74	=74
[>4e [<4c# [<4F#\	(>16ff#/LL	[4a#X\	[
.	16gg/	.	.
.	16ff#/	.	.
.	16ee#X/JJ)	.	.
8e] 8c#] 8F#\]	16ff#LL 16a#\]	4ryy	.
.	16aa#X 16ff# 16a#'>\	.	<
8r	16bb 16gg#X 16b'>\	.	.
.	16eeeJJ 16aa# 16cc#'>\	.	[[
*	*v	*v	*
=75	=75	=75
8BB 8BBB\	(>16dddLL 16bb 16dd\	f
.	16eeeJ 16ccc# 16ee\)	.
8f# 8d 8B 8F#\	8fff#J 8ddd 8ff#\	.
!	!LO:TX:b:i:t=1.	!
4g 4e 4A#X 4F#\	(>8.gggL 8.eee 8.gg\	.
.	16eeeJk 16ccc# 16ee\)	.
!!LO:LB:g=original
=76	=76	=76
8BB 8BBB\	(>16fff#LL 16ddd 16ff#\	.
.	16eeeJ 16ccc# 16ee\)	.
!LO:TX:a:i:t=2	!	!
8f# 8d 8B 8F#\	8dddJ 8bb 8dd\	.
4g 4e 4A#X 4F#\	(>8.gggL 8.eee 8.gg\	.
.	16eeeJk 16ccc# 16ee\)	.
=77	=77	=77
8BBL 8BBB\	8fff#L 8ddd 8ff#\	.
8g 8e 8A#X 8F#^>\	8ccc# 8aa#X 8cc#^>\	.
8BB 8BBB\	8fff# 8ddd 8ff#\	.
8gJ 8e 8A# 8F#^>\	8ccc#J 8aa# 8cc#^>\	.
=78	=78	=78
8BBL 8BBB\	8eeeL 8ccc# 8ee\	.
8gJ 8e 8A#X 8F#\	(>16dddL 16bb 16dd\	.
.	16ccc#JJ 16aa#X 16cc#\)	.
8qBB/	.	.
4f# 4d 4B 4F#\	(>16bbLL 16dd 16b\	.
.	16ccc# 16ee 16cc#\)	.
.	16ddd 16bb 16dd'\	.
.	16eeeJJ 16ccc# 16ee'\	.
=79	=79	=79
8BByy 8BBB\yy	(y>16dddLLyy 16bbyy 16dd\yy	f
.	16eeeJyy 16ccc#yy 16ee\)yy	.
!LO:TX:a:i:b:t=1	!	!
8f#yy 8dyy 8Byy 8F#\yy	8fff#Jyy 8dddyy 8ff#\yy	.
4gyy 4eyy 4A#Xyy 4F#\yy	(y>8.gggLyy 8.eeeyy 8.gg\yy	.
.	16eeeJkyy 16ccc#yy 16ee\)yy	.
=80	=80	=80
8BByy 8BBB\yy	(y>16fff#LLyy 16dddyy 16ff#\yy	.
.	16eeeJyy 16ccc#yy 16ee\)yy	.
!LO:TX:a:i:t=2	!	!
8f#yy 8dyy 8Byy 8F#\yy	8dddJyy 8bbyy 8dd\yy	.
4gyy 4eyy 4A#Xyy 4F#\yy	(y>8.gggLyy 8.eeeyy 8.gg\yy	.
.	16eeeJkyy 16ccc#yy 16ee\)yy	.
=81	=81	=81
*^	*	*
8r	8BB 8BBB\	8fff#L 8ddd 8ff#'\	.
4g\ 4e\ 4A#X\ 4F#\	4.ryy	8ccc#J 8aa#X 8cc#'\	.
.	.	[>4fff# [>4ddd [<4ff#^>\	.
8g\ 8e\ 8A#\ 8F#\	.	.	.
=82	=82	=82	=82
8r	8BB 8BBB\	(>16fff#]LL 16ddd] 16ff#\]	.
.	.	16eee 16ccc# 16ee\)	.
8g 8e 8A#X 8F#\	4.ryy	16ddd 16bb 16dd'>\	.
.	.	16ccc#JJ 16aa#X 16cc#'>\	.
8qBB/	.	.	.
4f# 4d 4A# 4F#\	.	4bb 4b\	.
*v	*v	*	*
!	!LO:TX:b:i:t=Krakowiak\nda capo\nal fine	!
==	==	==
*-	*-	*-
!!!system-decoration: {(s1,s2)}
!!!RDF**kern: | = vertical stroke
!!!RDF**kern: > = above
!!!RDF**kern: < = below
!!!ENC: Filip Voros
!!!END: 2021-11-03
!!!EED: Antoni Szymański
!!!EEV: 2021-11-05
!!!YEC: Copyright 2022 Narodowy Instytut Fryderyka Chopina (https://polishscores.org)
!!!YEM: License CC-BY-4.0 (https://creativecommons.org/licenses/by/4.0)
